X: 17
T: Drowsy Maggie
R: reel
M: 4/4
L: 1/8
K: Edor
|:E2BE dEBE|E2BE ADFA|E2BE dEBE|BABc dDFA:|
d2fd c2ec|defg afge|d2fd c2ec|BABc dDFA|
d2fd c2ec|defg afge|a2fg fdec|BABc dDFA|


Tune 27	Setting 12412

